!!!!SEGMENT: pl-wn--mus-iii-161-470--002_wieniawski-henryk--deux-mazurkas-caracteristiques-op-19-dudziarz.krn
!!!cenid: 18xx:3807
!!!COM: Wieniawski, Henryk
!!!COM-rismID: pe137176
!!!CDT: 1835/07/10-1880/03/31
!!!CNT:
!!!GTL: Deux mazurkas caractéristiques op. 19
!!!OTL: Dudziarz
!!!OMV: 002
!!!PDT:
!!!AGN:
!!!SMS-siglum: PL-Wn
!!!SMS-shelfmark: Mus.III.161.470
!!!SMS-shelfwork: 001-002 G
!!!SMS-variant:
!!!SMS-altvar:
!!!NIFC-rismSourceID:
!!!NIFC-rismChildID:
!!!NIFC-islandoraID: none
!!!URL-pdf-islandora:
!!!URL-scan: https://polona.pl/item/deux-mazurkas-caracteristiques-op-19,MTA4MDQwOTMw/0 @EN{Scan on Polona} @PL{Skany w portalu Polona}
!!!ONB-nifc:
!!!AIN: 1 piano 1 violn
!!!key: D
!!!OMD: Le Ménétrier - Mazurka. \nII.
**kern	**kern	**dynam	**kern	**fing	**dynam
*	*	*	*scale:70%	*	*
*part2	*part2	*part2	*part1	*part1	*part1
*staff3	*staff2	*	*staff1	*	*
*I"Piano.	*I"Piano.	*	*I"Violon.	*	*
*mI"Pianoforte	*mI"Pianoforte	*	*mI"Violino	*	*
*Ipiano	*Ipiano	*	*Ivioln	*	*
*ICklav	*ICklav	*	*ICstr	*	*
*IGacmp	*IGacmp	*	*IGsolo	*	*
*clefF4	*clefG2	*	*clefG2	*	*
*k[f#c#]	*k[f#c#]	*	*k[f#c#]	*	*
*D:	*D:	*	*D:	*	*
*M3/4	*M3/4	*	*M3/4	*	*
=1	=1	=1	=1	=1	=1
*xywh-#6:520,1789,3516,781	*xywh-#6:520,1789,3516,781	*	*xywh-#6:473,339,3553,1544	*	*
!	!	!	!LO:TX:a:B:t=pizz.	!	!
!	!LO:TX:a:B:t=Allegro, tempo di Mazurka.	!	!LO:MO:mod=!LO&colon;TX&colon;a&colon;B&colon;t=[Allegro, tempo di Mazurka.]	!	!
!	!	!	!LO:TX:null	!	!
2.r	2.r	.	4a 4d+</	.	.
.	.	.	4a 4d+</	.	.
.	.	.	4r	.	.
=2	=2	=2	=2	=2	=2
2.r	2.r	.	4ee 4a+\	.	.
.	.	.	4ee 4a+\	.	.
.	.	.	4r	.	.
=3	=3	=3	=3	=3	=3
2.r	2.r	.	4a 4d+</	.	.
.	.	.	4a 4d+</	.	.
.	.	.	4a 4d+</	.	.
=4	=4	=4	=4	=4	=4
2.r	2.r	.	4ee 4a+\	.	.
.	.	.	4ee 4a+\	.	.
.	.	.	4r	.	.
=5	=5	=5	=5	=5	=5
!	!	!	!LO:TX:a:B:t=arco	!	!
2.r	2.r	.	2d 2G/	.	<
.	.	.	[4a [4d/	.	.
=6	=6	=6	=6	=6	=6
2.r	2.r	.	4a] 4d/]	.	.
.	.	.	2ee 2a\	.	[
=7	=7	=7	=7	=7	=7
!	!	!	!LO:TX:a:B:t=molto vigoroso	!	!
.	.	.	(>8qd/	.	ff
8AA 8DD\	8A< 8D</	.	8ff#L 8a\)	.	.
8r	8r<	.	16r	.	.
.	.	.	(16bbJk 16au\	.	.
2AA 2DD\	2A< 2D</	.	4aa 4a^<\)	.	.
.	.	.	8ff#L 8a'\	.	.
.	.	.	8aaJ 8a'\	.	.
!!LO:LB:g=original
=8	=8	=8	=8	=8	=8
*xywh-#6:489,2898,3554,831	*xywh-#6:489,2898,3554,831	*	*xywh-#6:543,2540,3518,402	*	*
2AA 2DD\	2A< 2D</	.	(8.gg#XL 8.av<T\	.	.
.	.	.	16eeJk 16a\	.	.
.	.	.	8a 8gn/)	.	.
.	.	.	8r	.	.
[4AA [4DD\	[4A< [4D</	.	8aL 8e'u/	.	.
!	!	!	!LO:TX:a:B:t=talon.	!	!
.	.	.	8aJ 8g'/	.	.
=9	=9	=9	=9	=9	=9
4AA] 4DD\]	4A<] 4D</]	.	(4a 4f#t</	.	.
4AA 4DD\	4A< 4D</	.	8a 8d/)	.	.
.	.	.	(8ff#L 8a\	.	.
4AA 4DD\	4A< 4D</	.	8a 8d\	.	.
.	.	.	8aaJ 8a\)	.	.
=10	=10	=10	=10	=10	=10
*tremolo	*	*	*	*	*
32DD\LLL	2.e 2.c# 2.A< 2.D</	.	2e 2Au/	.	.
32AA\	.	.	.	.	.
32DD\	.	.	.	.	.
32AA\	.	.	.	.	.
32DD\	.	.	.	.	.
32AA\	.	.	.	.	.
32DD\	.	.	.	.	.
32AA\	.	.	.	.	.
32DD\	.	.	.	.	.
32AA\	.	.	.	.	.
32DD\	.	.	.	.	.
32AA\	.	.	.	.	.
32DD\	.	.	.	.	.
32AA\	.	.	.	.	.
32DD\	.	.	.	.	.
32AA\	.	.	.	.	.
32DD\	.	.	4ee 4av\	.	.
32AA\	.	.	.	.	.
32DD\	.	.	.	.	.
32AA\	.	.	.	.	.
32DD\	.	.	.	.	.
32AA\	.	.	.	.	.
32DD\	.	.	.	.	.
32AA\JJJ	.	.	.	.	.
*Xtremolo	*	*	*	*	*
=11	=11	=11	=11	=11	=11
.	.	.	(>8qd/	.	.
8AA 8DD\	8A< 8D</	.	8ff# 8a\)	.	.
8r	8r<	.	16r	.	.
.	.	.	(16bb 16au\	.	.
2AA 2DD\	2A< 2D</	.	4aa 4a^<\)	.	.
.	.	.	8ff#L 8a'\	.	.
.	.	.	8aaJ 8a'\	.	.
=12	=12	=12	=12	=12	=12
2AA 2DD\	2A< 2D</	.	(8.gg#XL 8.av<T\	.	.
.	.	.	16eeJk 16a\	.	.
.	.	.	8an 8g/)	.	.
.	.	.	8r	.	.
[4AA [4DD\	[4A< [4D</	.	8aL 8e'/	.	.
.	.	.	8aJ 8g'/	.	.
=13	=13	=13	=13	=13	=13
4AA] 4DD\]	4A<] 4D</]	.	(4a 4f#t</	.	.
4AA 4DD\	4A< 4D</	.	8a 8d/)	.	.
.	.	.	(8ff#L 8a/	.	.
4AA 4DD\	4e 4c# 4A< 4D</	.	8e 8A/	.	.
.	.	.	8eeJ 8a/)	.	.
=14	=14	=14	=14	=14	=14
*tremolo	*	*	*	*	*
32DD\LLL	2.f# 2.d 2.A< 2.F#</	.	2dd 2d/	.	.
32AA\	.	.	.	.	.
32DD\	.	.	.	.	.
32AA\	.	.	.	.	.
32DD\	.	.	.	.	.
32AA\	.	.	.	.	.
32DD\	.	.	.	.	.
32AA\	.	.	.	.	.
32DD\	.	.	.	.	.
32AA\	.	.	.	.	.
32DD\	.	.	.	.	.
32AA\	.	.	.	.	.
32DD\	.	.	.	.	.
32AA\	.	.	.	.	.
32DD\	.	.	.	.	.
32AA\	.	.	.	.	.
32DD\	.	.	(>4a 4d/	.	.
32AA\	.	.	.	.	.
32DD\	.	.	.	.	.
32AA\	.	.	.	.	.
32DD\	.	.	.	.	.
32AA\	.	.	.	.	.
32DD\	.	.	.	.	.
32AA\JJJ	.	.	.	.	.
*Xtremolo	*	*	*	*	*
!!LO:LB:g=original
=15	=15	=15	=15	=15	=15
*xywh-#6:476,4045,3630,825	*xywh-#6:476,4045,3630,825	*	*xywh-#6:565,3695,3470,407	*	*
.	.	.	(>8qd/	.	.
8AA 8DD\	8A< 8D</	.	8ff# 8a\))	.	.
8r	8r<	.	16r	.	.
.	.	.	(16bb 16au\	.	.
2AA 2DD\	2A< 2D<^/	.	4aa 4a^<\)	.	.
.	.	.	8ff#L 8a'\	.	.
.	.	.	8aaJ 8a'\	.	.
=16	=16	=16	=16	=16	=16
2AA 2DD\	2A< 2D<^/	.	(8.gg#XL 8.av<T\	.	.
.	.	.	16eeJk 16a\	.	.
.	.	.	8an 8g/)	.	.
.	.	.	8r	.	.
[4AA [4DD\	[4A< [4D<^/	.	8aL 8e'/	.	.
.	.	.	8aJ 8g'/	.	.
=17	=17	=17	=17	=17	=17
4AA] 4DD\]	4A<] 4D</]	.	(4a 4f#t</	.	.
4AA 4DD\	4A< 4D</	.	8a 8d/)	.	.
.	.	.	(8ff#L 8a\	.	.
4AA 4DD\	4A< 4D</	.	8a 8d\	.	.
.	.	.	8aaJ 8a\)	.	.
=18	=18	=18	=18	=18	=18
*tremolo	*	*	*	*	*
32DD\LLL	2.e< 2.c#< 2.A< 2.D</	.	2e 2A/	.	.
32AA\	.	.	.	.	.
32DD\	.	.	.	.	.
32AA\	.	.	.	.	.
32DD\	.	.	.	.	.
32AA\	.	.	.	.	.
32DD\	.	.	.	.	.
32AA\	.	.	.	.	.
32DD\	.	.	.	.	.
32AA\	.	.	.	.	.
32DD\	.	.	.	.	.
32AA\	.	.	.	.	.
32DD\	.	.	.	.	.
32AA\	.	.	.	.	.
32DD\	.	.	.	.	.
32AA\	.	.	.	.	.
32DD\	.	.	(4ee 4a\	.	.
32AA\	.	.	.	.	.
32DD\	.	.	.	.	.
32AA\	.	.	.	.	.
32DD\	.	.	.	.	.
32AA\	.	.	.	.	.
32DD\	.	.	.	.	.
32AA\JJJ	.	.	.	.	.
*Xtremolo	*	*	*	*	*
=19	=19	=19	=19	=19	=19
.	.	.	(>8qd/	.	.
8AA 8DD\	8A< 8D</	.	8ff#L 8a\))	.	.
8r	8r<	.	16r	.	.
.	.	.	(16bbJk 16a\	.	.
2AA 2DD\	2A< 2D</	.	4aa 4a^<\)	.	.
.	.	.	8ff#L 8a'\	.	.
.	.	.	8aaJ 8a'\	.	.
=20	=20	=20	=20	=20	=20
2AA 2DD\	2A< 2D</	.	(8.gg#XL 8.av\	.	.
.	.	.	16eeJk 16a\	.	.
.	.	.	8an 8g/)	.	.
.	.	.	8r	.	.
[4AA [4DD\	[4A< [4D</	.	8aL 8e'/	.	.
.	.	.	8aJ 8g'/	.	.
=21	=21	=21	=21	=21	=21
4AA] 4DD\]	4A<] 4D</]	.	(4a 4f#t</	.	.
4AA 4DD\	4A< 4D</	.	8a 8d/)	.	.
.	.	.	(8ff#L 8a/	.	.
4AA 4DD\	4e< 4c#< 4A< 4E</	.	8e 8A/	.	.
.	.	.	8eeJ 8a/)	.	.
!!LO:PB:g=original
=22	=22	=22	=22	=22	=22
*xywh-#7:142,888,3611,787	*xywh-#7:142,888,3611,787	*	*xywh-#7:224,497,3560,441	*	*
*tremolo	*	*	*	*	*
32DD\LLL	2.f#< 2.d< 2.A< 2.F#</	.	2.dd 2.d/	.	.
32AA\	.	.	.	.	.
32DD\	.	.	.	.	.
32AA\	.	.	.	.	.
32DD\	.	.	.	.	.
32AA\	.	.	.	.	.
32DD\	.	.	.	.	.
32AA\	.	.	.	.	.
32DD\	.	.	.	.	.
32AA\	.	.	.	.	.
32DD\	.	.	.	.	.
32AA\	.	.	.	.	.
32DD\	.	.	.	.	.
32AA\	.	.	.	.	.
32DD\	.	.	.	.	.
32AA\	.	.	.	.	.
32DD\	.	.	.	.	.
32AA\	.	.	.	.	.
32DD\	.	.	.	.	.
32AA\	.	.	.	.	.
32DD\	.	.	.	.	.
32AA\	.	.	.	.	.
32DD\	.	.	.	.	.
32AA\JJJ	.	.	.	.	.
*Xtremolo	*	*	*	*	*
=23	=23	=23	=23	=23	=23
8AA 8DD\	8e< 8c#< 8A< 8G</	.	8aL 8e 8Av/	.	.
8r	8r<	.	16r	.	.
.	.	.	(16aJk 16f#u/	.	.
[2AA [2DD^\	2e< 2c#< 2A< 2G<^/	.	4a 4g^>/)	.	.
.	.	.	8aL 8e/	.	.
.	.	.	8aJ 8g/	.	.
=24	=24	=24	=24	=24	=24
4AA] 4DD\]	2f#< 2d< 2A< 2F#</	.	(4a 4f#vt</	.	.
4AA 4DD\	.	.	8aL 8d/	.	.
.	.	.	8ff# 8a/	.	.
4AA 4DD\	4a 4f# 4d 4A/	.	8a 8d/	.	.
.	.	.	16aaJk 16a/)	.	.
.	.	.	16r	.	.
=25	=25	=25	=25	=25	=25
8AA 8DD\	8e< 8c#< 8A< 8G</	.	8aL 8e 8Au/	.	.
8r	8r<	.	16r	.	.
.	.	.	(16aJk 16f#u/	.	.
[2AA [2DD^\	2e< 2c#< 2A< 2G<^/	.	4a 4g^>/)	.	.
.	.	.	8aL 8e/	.	.
.	.	.	8aJ 8g/	.	.
=26	=26	=26	=26	=26	=26
4AA] 4DD\]	2f#< 2d< 2A< 2F#</	.	(4a 4f#vt</	.	.
4AA 4DD\	.	.	8aL 8d/	.	.
.	.	.	8ff# 8a/	.	.
4AA 4DD\	4a 4f# 4d 4A/	.	8a 8d/	.	.
.	.	.	16dddJk 16a/	.	.
.	.	.	16r)	.	.
=27	=27	=27	=27	=27	=27
8AA 8DD\	8e< 8c#< 8A< 8G</	.	8aL 8e 8Au/	.	.
8r	8r<	.	16r	.	.
.	.	.	16aJk 16f#u/	.	.
[2AA [2DD^\	2e< 2c#< 2A< 2G<^/	.	4a 4g^>/	.	.
.	.	.	8aL 8e/	.	.
.	.	.	8aJ 8g/	.	.
!!LO:LB:g=original
=28	=28	=28	=28	=28	=28
*xywh-#7:199,1953,3636,794	*xywh-#7:199,1953,3636,794	*	*xywh-#7:230,1600,3541,460	*	*
4AA] 4DD\]	2f#< 2d< 2A< 2F#</	.	(<4a 4f#t/	.	.
4AA 4DD\	.	.	8aL 8d/	.	.
.	.	.	8ff# 8a/	.	.
4AA 4DD\	4ff# 4dd 4a 4f#\	.	8a 8d/	.	.
.	.	.	16fff#Jk 16a/)	.	.
.	.	.	16r	.	.
=29	=29	=29	=29	=29	=29
*tremolo	*	*	*	*	*
32AAA/LLL	2a 2e 2c# 2G/	.	(8A/L	.	.
32AA/	.	.	.	.	.
32AAA/	.	.	.	.	.
32AA/	.	.	.	.	.
.	.	.	8qqe/	.	.
32AAA/	.	.	8bbJ 8a/)	.	.
32AA/	.	.	.	.	.
32AAA/	.	.	.	.	.
32AA/	.	.	.	.	.
.	.	.	(16qqaa/LL	.	.
.	.	.	16qqbb/JJ	.	.
32AAA/	.	.	8aa\L)	.	.
32AA/	.	.	.	.	.
32AAA/	.	.	.	.	.
32AA/	.	.	.	.	.
32AAA/	.	.	8gg'\	.	.
32AA/	.	.	.	.	.
32AAA/	.	.	.	.	.
32AA/	.	.	.	.	.
32AAA/	4aa 4cc# 4a 4g\	.	8ff#'\	.	.
32AA/	.	.	.	.	.
32AAA/	.	.	.	.	.
32AA/	.	.	.	.	.
32AAA/	.	.	8ee'\J	.	.
32AA/	.	.	.	.	.
32AAA/	.	.	.	.	.
32AA/JJJ	.	.	.	.	.
*Xtremolo	*	*	*	*	*
=30	=30	=30	=30	=30	=30
4AA 4DD/	4dd 4a 4f# 4d/	.	(2.ddv<\	.	>
4DD 4DDD/	4ddd 4aa 4ff# 4dd\	.	.	.	.
4r	4r	.	.	.	]
=31	=31	=31	=31	=31	=31
!	!	!	!LO:MO:mod=!LO&colon;TX&colon;a&colon;B&colon;t=con grazia	!	!
!	!	!	!LO:TX:b:B:t=con grazia	!	!
(2.F#\	4r	.	8dd\L	.	p
.	.	.	(8qffn/	.	.
.	.	.	16ee-X\Jk))	.	.
.	.	.	16r	.	.
.	4d 4cn/	.	((4.ddu\	.	.
.	4d 4c/	.	.	.	.
.	.	.	8a/)	.	.
=32	=32	=32	=32	=32	=32
!	!	!	!LO:MO:mod=!LO&colon;TX&colon;a&colon;B&colon;t=sul A_&colon;dur=5q&colon;ext=ud&colon;problem&colon;text with extention lines	!	!
!	!	!	!LO:TX:b:B:t=Sul A_:dur=5q:ext=ud:problem:text with extention lines	!	!
2.G\	4r	.	(8.b-X\L	.	.
.	.	.	16cc#\K	.	.
.	4d 4B-X/	.	8dd\	.	.
.	.	.	8bb-X\	.	.
.	4d 4B-/	.	8aa\	.	.
.	.	.	8gg\J)	.	.
=33	=33	=33	=33	=33	=33
2.A\	4r	.	(8ff#X\L	.	.
.	.	.	(16qqdd/LL	.	.
.	.	.	16qqffn/JJ	.	.
.	.	.	8ee-X\)	.	.
.	4f# 4d 4cn/	.	8dd\	.	.
*	*	*	*	*below	*
.	.	.	8ccn\	4	.
.	4f# 4d 4c/	.	8b-X\)	.	.
.	.	.	8a\J)	.	.
!!LO:LB:g=original
=34	=34	=34	=34	=34	=34
*xywh-#7:192,3025,3529,693	*xywh-#7:192,3025,3529,693	*	*xywh-#7:230,2678,3535,441	*	*
!LO:TX:t=P:problem:brak zakończenia łuku	!	!	!	!	!
2.B-X\)	4r	.	8.ddo\L	.	.
.	.	.	16b-X\Jk	.	.
.	2g 2d/	.	(2gv/	.	.
=35	=35	=35	=35	=35	=35
*	*	*	*	*above	*
[2.e-X [2.cn\	(2.a-X/	.	(8a-X/L	2	.
.	.	.	16ccn/Jk))	.	.
.	.	.	16r	.	.
!	!	!	!LO:TX:a:B:t=sul D_:dur=5q:ext=ud:problem:text with extention lines	!	!
.	.	.	2e-Xu/	.	.
=36	=36	=36	=36	=36	=36
2.e-X] 2.cnX\_	2aa-X\)	.	(8ccnv\L	.	.
.	.	.	16ee-X\Jk)	.	.
.	.	.	16r	.	.
.	.	.	(2e-X/	.	.
.	4r	.	.	.	.
=37	=37	=37	=37	=37	=37
2cnX\]	2.an [2.d/	.	8.d/L	.	.
.	.	.	16e#X/K	.	.
.	.	.	8f#X/	.	.
.	.	.	8a/	.	.
4F#X\	.	.	8dd/	.	.
.	.	.	8ccn/J	.	.
=38	=38	=38	=38	=38	=38
!	!	!	!LO:TX:b:t=P:problem:tr bez bemola	!	!
4G\	4b-X 4d/]	.	8b-Xt</L)	.	.
.	.	.	16r	.	.
.	.	.	(<16av/K	.	.
4r	4r	.	8g/	.	.
.	.	.	8a/	.	.
4r	4r	.	8b-/	.	.
.	.	.	8ccn/J	.	.
=39	=39	=39	=39	=39	=39
*	*^	*	*	*	*
*	*	*xywh-#7:192,3025,3529,693	*	*	*	*
(2.F#\	(2.a/	4r	.	8dd\L	.	.
.	.	.	.	8qffn/	.	.
.	.	.	.	16ee-X\Jk)	.	.
.	.	.	.	16r	.	.
.	.	4d 4cn\	.	((4.ddu<\	1	.
.	.	4d 4c\	.	.	.	.
.	.	.	.	8a/)	.	.
=40	=40	=40	=40	=40	=40	=40
!	!	!	!	!LO:MO:mod=!LO&colon;TX&colon;a&colon;B&colon;t=sul A_&colon;dur=5q&colon;ext=ud&colon;problem&colon;text with extention lines	!	!
!	!	!	!	!LO:TX:b:B:t=sul A_:dur=5q:ext=ud:problem:text with extention lines	!	!
2.G\	2.b-X/	4r	.	8.b-X\L	.	.
.	.	.	.	16cc#\K	.	.
.	.	4d 4B-X\	.	8dd\	.	.
.	.	.	.	8bb-X\	.	.
.	.	4d 4B-\	.	8aa\	.	.
.	.	.	.	8gg\J	.	.
!!LO:LB:g=original
=41	=41	=41	=41	=41	=41	=41
*xywh-#7:205,4052,3529,699	*xywh-#7:205,4052,3529,699	*xywh-#7:205,4052,3529,699	*	*xywh-#7:230,3730,3522,422	*	*
2.A\	2.cc#/	4r	.	8ff#X\L	.	.
.	.	.	.	(16qqdd/LL	.	.
.	.	.	.	16qqffn/JJ	.	.
.	.	.	.	8ee-X\)	.	.
.	.	4f# 4d\	.	8dd\	.	.
*	*	*	*	*	*below	*
.	.	.	.	8ccn\	4	.
.	.	4f# 4d\	.	8b-X\	.	.
.	.	.	.	8a\J)	.	.
=42	=42	=42	=42	=42	=42	=42
2.B-X\)	2.dd/)	4r	.	8.dd\L	.	.
.	.	.	.	16b-X\Jk	.	.
.	.	4g 4d\	.	(2g/	.	.
.	.	4g 4d\	.	.	.	.
*	*v	*v	*	*	*	*
=43	=43	=43	=43	=43	=43
[2.e-X [2.cn\	(2.ee-X (2.a-X\	.	(8a-X/L	.	.
.	.	.	16ccn/Jk))	.	.
.	.	.	16r	.	.
.	.	.	(4.e-X/	.	.
.	.	.	8g/	.	.
=44	=44	=44	=44	=44	=44
2e-X] 2cnX\]	2aa-X 2a-X\))	.	8a-X\L	.	<
.	.	.	8bn\	.	.
.	.	.	8ccn\	.	.
.	.	.	8dd\	.	.
4r	4r	.	8ee-X\	.	.
.	.	.	8aa-X\J	.	[
=45	=45	=45	=45	=45	=45
2.D\	4r	.	8.gg\L	.	>
.	.	.	(16ff#X\K	.	.
.	4r	.	8.dd\)	.	.
.	.	.	(16ccn\K	.	.
.	4f# 4cn/	.	8an\))	.	]
.	.	.	16r	.	.
.	.	.	((16b-Xv\Jk	.	.
=46	=46	=46	=46	=46	=46
4G\	2g 2B-X/	.	2.g/)	.	<
4GG/	.	.	.	.	.
4r	4r	.	.	.	[
!!LO:PB:g=original
=47	=47	=47	=47	=47	=47
*xywh-#8:552,825,3535,743	*xywh-#8:552,825,3535,743	*	*xywh-#8:577,378,3529,567	*	*
(2.F#\	4r	.	8dd\L	.	>
.	.	.	8qffn/	.	.
.	.	.	16ee-X\Jk)	.	]
.	.	.	16r	.	.
.	4d 4cn/	.	((4.ddu\	.	.
.	4d 4c/	.	.	.	.
.	.	.	8a/)	.	.
=48	=48	=48	=48	=48	=48
2.G\	4r	.	(8.b-X\L	.	.
.	.	.	16ccn\K	.	.
.	4d 4B-X/	.	8dd\	.	.
.	.	.	8bb-X\	.	.
.	4d 4B-/	.	8aa\	.	.
.	.	.	8gg\J)	.	.
=49	=49	=49	=49	=49	=49
*	*	*	*	*above	*
2.A\	4r	.	8ff#X\L	1	.
.	.	.	(16qqdd/LL	1	.
.	.	.	16qqffn/JJ	.	.
.	.	.	8ee-X\)	.	.
.	4f# 4d 4cn/	.	8dd\	.	.
.	.	.	8ccn\	.	.
.	4f# 4d 4c/	.	8b-X\	.	.
.	.	.	8a\J)	.	.
=50	=50	=50	=50	=50	=50
2.B-X\)	4r	.	8.ddo\L	.	.
.	.	.	16b-X\Jk	.	.
.	2g 2d/	.	(2g/	.	.
=51	=51	=51	=51	=51	=51
[2.e-X [2.cn\	(2.a-X/	.	(8a-X/L	.	.
.	.	.	16ccn/Jk))	.	.
.	.	.	16r	.	.
.	.	.	2e-Xu/	.	.
=52	=52	=52	=52	=52	=52
*^	*	*	*	*	*
*	*xywh-#8:552,825,3535,743	*	*	*	*	*
2e-/]	[2.cnX\]	2aa-X\)	.	(8ccnv\L	.	.
.	.	.	.	16ee-X\Jk)	.	.
.	.	.	.	16r	.	.
.	.	.	.	(2e-Xu/	.	.
4r	.	4r	.	.	.	.
*v	*v	*	*	*	*	*
!!LO:LB:g=original
=53	=53	=53	=53	=53	=53
*xywh-#8:545,1865,3541,781	*xywh-#8:545,1865,3541,781	*	*xywh-#8:627,1525,3447,491	*	*
2cnX\]	2.an [2.d/	.	8.d/L	.	.
.	.	.	16e#X/K	.	.
.	.	.	8f#X/	.	.
.	.	.	8an/	.	.
4F#X\	.	.	8dd/	.	.
.	.	.	8ccn/J	.	.
=54	=54	=54	=54	=54	=54
!	!	!	!LO:TX:t=P:problem:tr bez bemola	!	!
4G\	4b-X 4d/]	.	8b-Xt/)L	.	.
.	.	.	16r	.	.
.	.	.	(16av/K	.	.
4r	4r	.	8g/	.	.
.	.	.	8a/	.	.
4r	4r	.	8b-/	.	.
.	.	.	8ccn/J	.	.
=55	=55	=55	=55	=55	=55
*	*^	*	*	*	*
*	*	*xywh-#8:545,1865,3541,781	*	*	*	*
(2.F#\	(2.a/	4r	.	8dd\L	.	.
.	.	.	.	8qffn/	.	.
.	.	.	.	16ee-X\Jk)	.	.
.	.	.	.	16r	.	.
.	.	4d 4cn\	.	(4.ddu\	.	.
.	.	4d 4c\	.	.	.	.
.	.	.	.	8a/	.	.
=56	=56	=56	=56	=56	=56	=56
2.G\	2.b-X/	4r	.	8.b-X\L	.	.
.	.	.	.	16ccn\K	.	.
.	.	4d 4B-X\	.	8dd\	1	.
.	.	.	.	8bb-X\	4	.
.	.	4d 4B-\	.	8aa\	.	.
.	.	.	.	8gg\J	.	.
=57	=57	=57	=57	=57	=57	=57
2.A\	2.ccn/	4r	.	8ff#\L	1	.
.	.	.	.	(16qqdd/LL	1	.
.	.	.	.	16qqffn/JJ	3	.
.	.	.	.	8ee-X\)	2	.
.	.	4f# 4d\	.	8dd\	.	.
.	.	.	.	8ccn\	4	.
.	.	4f# 4d\	.	8b-X\	.	.
.	.	.	.	8a\J)	.	.
=58	=58	=58	=58	=58	=58	=58
2.B-X\)	2.dd/)	4r	.	8.dd\L	.	.
.	.	.	.	16b-X\Jk	.	.
.	.	4g 4d\	.	(2g/	.	.
.	.	4g 4d\	.	.	.	.
*	*v	*v	*	*	*	*
!!LO:LB:g=original
=59	=59	=59	=59	=59	=59
*xywh-#8:526,2936,3510,882	*xywh-#8:526,2936,3510,882	*	*xywh-#8:602,2615,3422,466	*	*
[2.e-X [2.cn\	(2.ee-X (2.a-X\	.	8a-X/L	.	.
.	.	.	16ccn/Jk)	.	.
.	.	.	16r	.	.
.	.	.	(4.e-X/	.	.
.	.	.	8g/	.	.
=60	=60	=60	=60	=60	=60
2e-X] 2cnX\]	2aa-X 2a-X\))	.	8.a-X\L	.	.
.	.	.	16bn\K	.	.
.	.	.	8ccn\	.	.
.	.	.	8dd\	.	.
4r	4r	.	8ee-X\	.	.
.	.	.	8aa-X\J	.	.
=61	=61	=61	=61	=61	=61
2.D\	4r	.	8.gg\L	.	.
.	.	.	(16ff#X\K	.	.
.	4r	.	8.dd\)	.	.
.	.	.	(16ccn\K	.	.
.	4f# 4cn'/	.	8a\))	.	.
.	.	.	16r	.	.
.	.	.	((<16b-Xv\Jk	.	.
=62	=62	=62	=62	=62	=62
4G\	[2g [2B-X/	.	[2g/)	.	.
8GG/	.	.	.	.	.
8r	.	.	.	.	.
4r	8g] 8B-/]	.	8g/])	.	.
.	8r	.	8r	.	.
=63	=63	=63	=63	=63	=63
.	.	.	(>8qd/	.	.
!	!	!LO:DY:b=2:rj	!	!	!
8AA 8DD\	8A< 8D</	f	8ff#L 8a\)	.	ff
8r	8r<	.	16r	.	.
.	.	.	(16bbJk 16a\	.	.
2AA 2DD\	2A< 2D</	.	4aa 4a\)	.	.
.	.	.	8ff#L 8a'\	.	.
.	.	.	8aaJ 8a'\	.	.
=64	=64	=64	=64	=64	=64
2AA 2DD\	2A< 2D</	.	(8.gg#XL 8.aT\	.	.
.	.	.	16eeJk 16a\	.	.
.	.	.	8a 8gn/)	.	.
.	.	.	8r	.	.
[4AA [4DD\	[4A< [4D</	.	8aL 8e'/	.	.
.	.	.	8g'/J	.	.
!!LO:LB:g=original
=65	=65	=65	=65	=65	=65
*xywh-#8:451,4014,3573,850	*xywh-#8:451,4014,3573,850	*	*xywh-#8:583,3680,3422,478	*	*
4AA] 4DD\]	4A<] 4D</]	.	(4a 4f#t</	.	.
4AA 4DD\	4A< 4D</	.	8a 8d/)	.	.
.	.	.	(8ff#L 8a\	.	.
4AA 4DD\	4A< 4D</	.	8a 8d\	.	.
.	.	.	8aaJ 8a\)	.	.
=66	=66	=66	=66	=66	=66
*tremolo	*	*	*	*	*
32DD\LLL	2.e< 2.c#< 2.A< 2.E</	.	2e 2A/	.	.
32AA\	.	.	.	.	.
32DD\	.	.	.	.	.
32AA\	.	.	.	.	.
32DD\	.	.	.	.	.
32AA\	.	.	.	.	.
32DD\	.	.	.	.	.
32AA\	.	.	.	.	.
32DD\	.	.	.	.	.
32AA\	.	.	.	.	.
32DD\	.	.	.	.	.
32AA\	.	.	.	.	.
32DD\	.	.	.	.	.
32AA\	.	.	.	.	.
32DD\	.	.	.	.	.
32AA\	.	.	.	.	.
32DD\	.	.	(4ee 4a\	.	.
32AA\	.	.	.	.	.
32DD\	.	.	.	.	.
32AA\	.	.	.	.	.
32DD\	.	.	.	.	.
32AA\	.	.	.	.	.
32DD\	.	.	.	.	.
32AA\JJJ	.	.	.	.	.
*Xtremolo	*	*	*	*	*
=67	=67	=67	=67	=67	=67
.	.	.	(>8qd/	.	.
8AA 8DD\	8A< 8D</	.	8ff# 8a\))	.	.
8r	8r<	.	16r	.	.
.	.	.	(16bb 16au\	.	.
2AA 2DD\	2A< 2D</	.	4aa 4a^\)	.	.
.	.	.	8ff#L 8a'\	.	.
.	.	.	8aaJ 8a'\	.	.
=68	=68	=68	=68	=68	=68
2AA 2DD\	2A< 2D</	.	(8.gg#XL 8.aT\	.	.
.	.	.	16eeJk 16a\	.	.
.	.	.	8an 8g/)	.	.
.	.	.	8r	.	.
[4AA [4DD\	[4A< [4D</	.	8aL 8eu/	.	.
.	.	.	8aJ 8g/	.	.
=69	=69	=69	=69	=69	=69
4AA] 4DD\]	4A<] 4D</]	.	(4a 4f#t<u/	.	.
4AA 4DD\	4A< 4D</	.	8a 8d/)	.	.
.	.	.	(8ff#L 8av/	.	.
4AA 4DD\	4e< 4c#< 4A< 4G</	.	8e 8A/	.	.
.	.	.	8eeJ 8a/)	.	.
=70	=70	=70	=70	=70	=70
*tremolo	*	*	*	*	*
32DD\LLL	2.f#< 2.d< 2.A< 2.F#</	.	2.dd 2.d/	.	.
32AA\	.	.	.	.	.
32DD\	.	.	.	.	.
32AA\	.	.	.	.	.
32DD\	.	.	.	.	.
32AA\	.	.	.	.	.
32DD\	.	.	.	.	.
32AA\	.	.	.	.	.
32DD\	.	.	.	.	.
32AA\	.	.	.	.	.
32DD\	.	.	.	.	.
32AA\	.	.	.	.	.
32DD\	.	.	.	.	.
32AA\	.	.	.	.	.
32DD\	.	.	.	.	.
32AA\	.	.	.	.	.
32DD\	.	.	.	.	.
32AA\	.	.	.	.	.
32DD\	.	.	.	.	.
32AA\	.	.	.	.	.
32DD\	.	.	.	.	.
32AA\	.	.	.	.	.
32DD\	.	.	.	.	.
32AA\JJJ	.	.	.	.	.
*Xtremolo	*	*	*	*	*
!!LO:PB:g=original
=71	=71	=71	=71	=71	=71
*xywh-#9:167,945,3535,812	*xywh-#9:167,945,3535,812	*	*xywh-#9:218,541,3560,460	*	*
8AA 8DD\	8e< 8c#< 8A< 8G</	.	8aL 8e 8Av/	.	.
8r	8r<	.	16r	.	.
.	.	.	(16aJk 16f#u/	.	.
[2AA [2DD\	2e< 2c#< 2A< 2G</	.	8a 8g/)	.	.
.	.	.	8r	.	.
.	.	.	8aL 8e'/	.	.
.	.	.	8aJ 8g'/	.	.
=72	=72	=72	=72	=72	=72
4AA] 4DD\]	2f#< 2d< 2A< 2F#</	.	(4a 4f#vt</	.	.
4AA 4DD\	.	.	8aL 8d/	.	.
.	.	.	8ff# 8a/	.	.
4AA 4DD\	4a 4f# 4d 4A/	.	8a 8d/	.	.
.	.	.	16aaJk 16a/)	.	.
.	.	.	16r	.	.
=73	=73	=73	=73	=73	=73
8AA 8DD\	8e< 8c#< 8A< 8G</	.	8aL 8e 8Au/	.	.
8r	8r<	.	16r	.	.
.	.	.	(16aJk 16f#u/	.	.
[2AA [2DD\	2e< 2c#< 2A< 2G</	.	4a 4g/)	.	.
.	.	.	8aL 8e/	.	.
.	.	.	8aJ 8g/	.	.
=74	=74	=74	=74	=74	=74
4AA] 4DD\]	2f#< 2d< 2A< 2F#</	.	(4a 4f#t</	.	.
4AA 4DD\	.	.	8aL 8d/	.	.
.	.	.	8ff# 8a/	.	.
[<4AA [4DD\	4dd 4a 4f# 4d/	.	8a 8d/	.	.
.	.	.	16dddJk 16a/)	.	.
.	.	.	16r	.	.
=75	=75	=75	=75	=75	=75
8AA] 8DD\]	8e< 8c#< 8A< 8G</	.	8aL 8e 8Au/	.	.
8ryy	8ryy	.	16r	.	.
.	.	.	(16aJk 16f#u/	.	.
[2AA [2DD\	2e< 2c#< 2A< 2G</	.	4a 4g/)	.	.
.	.	.	8aL 8e/	.	.
.	.	.	8aJ 8g/	.	.
=76	=76	=76	=76	=76	=76
4AA] 4DD\]	2f#< 2d< 2A< 2F#</	.	(4a 4f#t</	.	.
4AA 4DD\	.	.	8aL 8d/	.	.
.	.	.	8ff# 8a/	.	.
4AA 4DD\	4ff# 4dd 4a 4f#/	.	8a 8d/	.	.
.	.	.	16fff#Jk 16a/)	.	.
.	.	.	16r	.	.
!!LO:LB:g=original
=77	=77	=77	=77	=77	=77
*xywh-#9:205,2004,3478,812	*xywh-#9:205,2004,3478,812	*	*xywh-#9:192,1651,3642,453	*	*
*tremolo	*	*	*	*	*
32AAA/LLL	2a 2e 2c# 2G/	.	(8eL 8A/	.	.
32AA/	.	.	.	.	.
32AAA/	.	.	.	.	.
32AA/	.	.	.	.	.
32AAA/	.	.	16bbJk 16a/)	.	.
32AA/	.	.	.	.	.
32AAA/	.	.	16r	.	.
32AA/	.	.	.	.	.
.	.	.	(16qqaa/LL	.	.
.	.	.	16qqbb/JJ)	.	.
32AAA/	.	.	8aa\L	.	.
32AA/	.	.	.	.	.
32AAA/	.	.	.	.	.
32AA/	.	.	.	.	.
32AAA/	.	.	8gg\	.	.
32AA/	.	.	.	.	.
32AAA/	.	.	.	.	.
32AA/	.	.	.	.	.
32AAA/	4aa 4ee 4cc# 4g\	.	8ff#\	.	.
32AA/	.	.	.	.	.
32AAA/	.	.	.	.	.
32AA/	.	.	.	.	.
32AAA/	.	.	8ee\J	.	.
32AA/	.	.	.	.	.
32AAA/	.	.	.	.	.
32AA/JJJ	.	.	.	.	.
*Xtremolo	*	*	*	*	*
=78	=78	=78	=78	=78	=78
4AA 4DD/	4dd 4a 4f# 4d/	.	2dd\	.	.
4DD 4DDD/	4ddd 4aa 4ff# 4dd\	.	.	.	.
*kcancel	*kcancel	*	*kcancel	*	*
4r	4r;	.	(4d;u/	.	.
=79||	=79||	=79||	=79||	=79||	=79||
*k[b-e-]	*k[b-e-]	*	*k[b-e-]	*	*
!	!	!	!LO:TX:a:B:t=con melancolia.	!	!
[2.D [2.GG/	[2.g [2.B-/	p	(8.g/L	1	p
.	.	.	16b-/Jk))	.	.
.	.	.	4dd\	.	.
.	.	.	4gg\	.	.
=80	=80	=80	=80	=80	=80
2.D_ 2.GG/_	2.g_ 2.B-/_	.	(8.ffv\L	.	.
.	.	.	16dd\Jk	.	.
.	.	.	4b-\	.	.
.	.	.	8ddo\L	3	.
.	.	.	8cc\J	4	.
=81	=81	=81	=81	=81	=81
2.D] 2.GG/]	2.g] 2.B-/]	.	8a\L	.	.
.	.	.	8cc\J	.	.
.	.	.	16qqb-/LL	.	.
.	.	.	16qqcc/JJ	.	.
.	.	.	8b-\)	.	.
.	.	.	8r	.	.
.	.	.	8a/L	.	.
.	.	.	8g/J	.	.
=82	=82	=82	=82	=82	=82
*	*^	*	*	*	*
*	*	*xywh-#9:205,2004,3478,812	*	*	*	*
*	*	*	*	*	*below	*
2D\	(4g/	2A\	.	(2au/	2	.
.	4f#X/)	.	.	.	.	.
4r	4r	4ryy	.	4do</	.	.
*	*v	*v	*	*	*	*
!!LO:LB:g=original
=83	=83	=83	=83	=83	=83
*xywh-#9:155,3132,3604,724	*xywh-#9:155,3132,3604,724	*	*xywh-#9:186,2716,3585,472	*	*
[2.D [2.GG/	[2.g [2.B-/	.	8.g/L	.	.
.	.	.	16b-/Jk)	.	.
!	!	!	!LO:TX:a:B:t=sul A_	!	!
.	.	.	(4ddv\	.	.
*	*	*	*	*above	*
.	.	.	4bb-\	4	.
=84	=84	=84	=84	=84	=84
2.D_ 2.GG/_	2.g_ 2.B-/_	.	8aao\L)	4	.
.	.	.	16r	.	.
.	.	.	(16ggu\Jk	.	.
.	.	.	4dd\	.	.
.	.	.	8ff\L	.	.
.	.	.	8ee-\J	.	.
=85	=85	=85	=85	=85	=85
!	!LO:N:vis=6.	!	!	!	!
2.D_ 2.GG/_	2g] 2B-/]	.	8dd\L	.	.
.	.	.	8b-\	.	.
.	.	.	8g\	.	.
.	.	.	8b-\	.	.
.	.	.	(16qqa/LL	.	.
.	.	.	16qqb-/JJ	.	.
.	4f#X 4c/	.	8.a\)	.	.
.	.	.	16d\Jk)	.	.
=86	=86	=86	=86	=86	=86
2D] 2GG/]	2g 2B-/	.	[4g/	.	.
.	.	.	8g/]	.	.
.	.	.	8r	.	.
4r	4r	.	(4d/	.	pp
=87	=87	=87	=87	=87	=87
[2.D [2.GG/	[2.g [2.B-/	pp	8.g/L	.	.
.	.	.	16b-/Jk	.	.
.	.	.	4dd\	.	.
.	.	.	4gg\)	.	.
=88	=88	=88	=88	=88	=88
2.D_ 2.GG/_	2.g_ 2.B-/_	.	(8.ff\L	.	.
.	.	.	16dd\Jk	.	.
.	.	.	4b-\	.	.
.	.	.	8ddo\L	3	.
.	.	.	8cc\J	4	.
!!LO:LB:g=original
=89	=89	=89	=89	=89	=89
*xywh-#9:123,4184,3623,705	*xywh-#9:123,4184,3623,705	*	*xywh-#9:192,3812,3573,415	*	*
2.D] 2.GG/]	2.g] 2.B-/]	.	8a/L	.	.
.	.	.	8cc/J	.	.
.	.	.	(16qqb-/LL	.	.
.	.	.	16qqcc/JJ	.	.
.	.	.	8b-\))	.	.
.	.	.	8r	.	.
.	.	.	8a/L	.	.
.	.	.	8g/J	.	.
=90	=90	=90	=90	=90	=90
*	*^	*	*	*	*
*	*	*xywh-#9:123,4184,3623,705	*	*	*	*
2D\	(4g/	2A\	.	(2au/	.	.
.	4f#X/)	.	.	.	.	.
4r	4r	4r	.	4d/	.	.
*	*v	*v	*	*	*	*
=91	=91	=91	=91	=91	=91
[2.D [2.GG/	[2.g [2.B-/	.	8.g/L	.	.
.	.	.	16b-/Jk)	.	.
.	.	.	(4dd\	.	.
.	.	.	4bb-\	.	.
=92	=92	=92	=92	=92	=92
2.D_ 2.GG/_	2.g_ 2.B-/_	.	8aao\L)	4	.
.	.	.	16r	.	.
.	.	.	(16gg\Jk	.	.
.	.	.	4dd\	.	.
.	.	.	8ff\L	.	.
.	.	.	8ee-\J	.	.
=93	=93	=93	=93	=93	=93
2.D_ 2.GG/_	2g] 2B-/]	.	8dd\L	.	.
.	.	.	8b-\	.	.
.	.	.	8g\	.	.
.	.	.	8b-\	.	.
.	.	.	(16qqa/LL	.	.
.	.	.	16qqb-/JJ	.	.
.	4f#X 4c/	.	8.a\)	.	.
.	.	.	16d\Jk)	.	.
=94	=94	=94	=94	=94	=94
2D_ 2GG/_	[2g [2B-/	.	([2gv/	.	<
8D] 8GG/]	8g] 8B-/]	.	8g/]	.	.
8r	8r	.	8r	.	[
!!LO:PB:g=original
=95	=95	=95	=95	=95	=95
*xywh-#10:476,863,3623,718	*xywh-#10:476,863,3623,718	*	*xywh-#10:558,472,3453,460	*	*
2.A 2.D\	2.f#X 2.d/	.	8f#X/L)	.	>]
.	.	.	16r	.	.
.	.	.	(16g/Jk	.	.
!	!	!	!LO:TX:b:B:t=espress.	!	!
.	.	.	4a/	.	<
.	.	.	4dd\	1	.
=96	=96	=96	=96	=96	=96
2.G 2.D\	2.b- 2.en 2.c#X/	.	8.een\L	1	.
.	.	.	16ff#X\Jk)	.	[
.	.	.	(2gg\	.	.
=97	=97	=97	=97	=97	=97
*	*^	*	*	*	*
*	*	*xywh-#10:476,863,3623,718	*	*	*	*
(8.D\L	(8.f#X/L	[4d\	.	8.ff#X\L)	.	.
16En\Jk	16g/Jk	.	.	16een\Jk	.	.
4F#X\	4a/	8d\]	.	4dd\	.	.
.	.	8r	.	.	.	.
4G\)	4dd 4b-/)	4r	.	8b-X\L	.	.
.	.	.	.	(8gv\J	.	.
*	*v	*v	*	*	*	*
=98	=98	=98	=98	=98	=98
.	(>8qqff#X/	.	.	.	.
!	!	!	!LO:TUP:b	!	!
8A\	8een 8cc#X 8gn\)	.	12en/L	.	.
.	.	.	12f#X/	.	.
8r	8r	.	.	.	.
.	.	.	12g/J	.	.
2d\	2dd 2a 2f#X/	.	8f#/)	.	.
.	.	.	8r	.	.
.	.	.	(4d^/	.	.
=99	=99	=99	=99	=99	=99
2.A 2.D\	2.f#X 2.d/	.	8.f#X/L	.	.
.	.	.	16g/Jk)	.	.
.	.	.	4a/	.	.
.	.	.	4dd\	.	.
=100	=100	=100	=100	=100	=100
2.G 2.D\	2.b- 2.en 2.c#X/	.	8.een\L	.	.
.	.	.	16ff#X\Jk	.	.
.	.	.	(16qqff#/LL	.	.
.	.	.	16qqaa/JJ	.	.
.	.	.	(2gg\)	.	.
!!LO:LB:g=original
=101	=101	=101	=101	=101	=101
*xywh-#10:514,1890,3478,705	*xywh-#10:514,1890,3478,705	*	*xywh-#10:552,1581,3453,390	*	*
(8.D\L	(8.f#X/L	.	8.ff#X\L)	.	.
16En\Jk	16g/Jk	.	16een\Jk	.	.
4F#X\	4a/	.	4dd\	.	.
!	!	!	!LO:SIC:s=(8.b-L	!	!
4G\)	4dd 4b-\)	.	(<8.b-\L	.	.
.	.	.	16g\Jk	.	.
=102	=102	=102	=102	=102	=102
.	(>8qqff#X/	.	.	.	.
8A\	8een 8cc#X 8gn\)	.	12en/L	.	.
.	.	.	12f#X/	.	.
8r	8r	.	.	.	.
.	.	.	12g/J	.	.
2d\	2dd 2a 2f#X/	.	4f#/	.	.
.	.	.	8.d/L	.	.
.	.	.	16a/Jk)	.	.
=103	=103	=103	=103	=103	=103
.	(>8qqff#X/	.	.	.	.
!	!	!	!LO:SIC:s=(>12enL	!	!
8A\	8een 8cc#X 8gn\)	.	(<12en/L	.	.
.	.	.	12f#X/	.	.
8r	8r	.	.	.	.
.	.	.	12g/J	.	.
2d\	2dd 2a 2f#X/	.	4f#/	.	.
.	.	.	8.d/L	.	.
.	.	.	16dd/Jk)	.	.
=104	=104	=104	=104	=104	=104
.	(>8qqff#X/	.	.	.	.
8A\	8een 8cc#X 8gn\)	.	(12en/L	.	.
.	.	.	12f#X/	.	.
8r	8r	.	.	.	.
.	.	.	12g/J	.	.
4r	4r	.	4e/	.	.
4r	4r	.	8.d\L	.	.
.	.	.	16dddo\Jk)	.	.
=105	=105	=105	=105	=105	=105
4d\	4dd 4a 4f#X/	.	2ddd;\	.	.
4r;	4r;	.	.	.	.
4r	4r	.	(4d/	.	.
=106	=106	=106	=106	=106	=106
4r	2.b- 2.g/	.	8.g/L	.	.
.	.	.	16b-/Jk)	.	.
(4f\	.	.	4dd\	.	.
4e-\	.	.	4gg\	.	.
!!LO:LB:g=original
=107	=107	=107	=107	=107	=107
*xywh-#10:457,2962,3604,787	*xywh-#10:457,2962,3604,787	*	*xywh-#10:514,2609,3485,472	*	*
2.d\	2b- 2f/	.	(8.ffv\L	.	.
.	.	.	16dd\Jk	.	.
.	.	.	4b-\	.	.
.	[4a [4f#X/	.	8dd\L	.	.
.	.	.	8cc\J	.	.
=108	=108	=108	=108	=108	=108
*	*^	*	*	*	*
*	*	*xywh-#10:457,2962,3604,787	*	*	*	*
2e-\	(>4a] 4f#/]	4ryy	.	8a/L	.	.
.	.	.	.	8cc/J	.	.
.	.	.	.	(16qqb-/LL	.	.
.	.	.	.	16qqcc/JJ	.	.
.	4b-/	([2g\	.	8b-\))	.	.
.	.	.	.	8r	.	.
4B-\	4ee-/)	.	.	8a'/L	.	.
.	.	.	.	8g'/J	.	.
=109	=109	=109	=109	=109	=109	=109
2d\)	2a/	4g\]	.	2a/	.	.
.	.	4f#X\)	.	.	.	.
!	!LO:MO:mod=!LO&colon;TX&colon;b&colon;B&colon;t=piu ritenuto	!	!	!	!	!
!	!LO:TX:b:i:t=piu riten.	!	!	!LO:TX:b:B:t=piu ritenuto_:dur=13q:ext=ud:problem:text with extention lines	!	!
4r	4r	4ryy	.	(4d/	.	.
*	*v	*v	*	*	*	*
=110	=110	=110	=110	=110	=110
2.B- 2.G\	(>2.g [2.d/	.	8.g/L	.	.
.	.	.	16b-/Jk)	.	.
.	.	.	(4dd\	.	.
.	.	.	4bb-\	.	.
=111	=111	=111	=111	=111	=111
*	*^	*	*	*	*
*	*	*xywh-#10:457,2962,3604,787	*	*	*	*
(2F\	2d] 2a/	2ryy	.	8aa\L)	.	.
.	.	.	.	16r	.	.
.	.	.	.	(16ff\Jk	.	.
.	.	.	.	4dd\	.	.
4B- 4G\)	4b-/)	4g\	.	8ff\L	.	.
.	.	.	.	8ee-\J	.	.
*	*v	*v	*	*	*	*
=112	=112	=112	=112	=112	=112
[2.D [2.DD/	[2.dd [2.d/	.	8dd\L	.	.
.	.	.	8b-\	.	.
.	.	.	8g\	.	.
.	.	.	8b-\	.	.
.	.	.	16qqa/LL	.	.
.	.	.	16qqb-/JJ	.	.
.	.	.	8a\	.	.
.	.	.	16d\Jk)	.	.
.	.	.	16r;	.	.
!!LO:LB:g=original
=113	=113	=113	=113	=113	=113
*xywh-#10:463,4020,3585,781	*xywh-#10:463,4020,3585,781	*	*xywh-#10:501,3762,3522,390	*	*
2.D_ 2.DD/_	2.dd_ 2.d/_	.	(8dd\L	.	.
.	.	.	8bn\	.	.
.	.	.	8g\	.	.
.	.	.	8b\	.	.
.	.	.	16qqa/LL	.	.
.	.	.	16qqb/JJ	.	.
.	.	.	8a\	.	.
.	.	.	16d\Jk)	.	.
.	.	.	16r;	.	.
=114	=114	=114	=114	=114	=114
.	.	.	(>16qqau/LL	.	.
.	.	.	16qqb-X/JJ	.	.
2.D_ 2.DD/_	2.dd_ 2.d/_	.	8a\L	.	.
.	.	.	8d\)	.	.
.	.	.	(8b-Xv\J	.	.
.	.	.	16qqa/LL	.	.
.	.	.	16qqbn/JJ	.	.
.	.	.	8a\L	.	.
.	.	.	8d\)	.	.
.	.	.	(8bnu\J	.	.
=115	=115	=115	=115	=115	=115
.	.	.	16qqa/LL	.	.
.	.	.	16qqb-X/JJ	.	.
2.D_ 2.DD/_	2.dd_ 2.d/_	.	8a\L	.	.
.	.	.	8d\)	.	.
.	.	.	(8b-Xv\J	.	.
.	.	.	16qqa/LL	.	.
.	.	.	16qqbn/JJ	.	.
.	.	.	8a\L	.	.
.	.	.	8d\)	.	.
.	.	.	(8bnu\J	.	.
=116	=116	=116	=116	=116	=116
.	.	.	16qqa/LL	.	.
.	.	.	16qqb-X/JJ	.	.
2.D_ 2.DD/_	2.dd_ 2.d/_	.	(8a/L	.	.
.	.	.	8d/J))	.	.
.	.	.	4r	.	.
.	.	.	4r	.	.
=117	=117	=117	=117	=117	=117
.	.	.	(16qqav/LL	.	.
.	.	.	16qqbn/JJ	.	.
4D] 4DD/]	4dd] 4d/]	.	8a/L	.	.
.	.	.	8d/J)	.	.
4r	4r	.	4r	.	.
4r	4r	.	4r	.	.
=118	=118	=118	=118	=118	=118
!	!	!	!LO:TX:b:B:t=m. g.	!	!
!	!	!	!LO:TX:a:B:t=pizz.	!	!
2.r	2.r	.	4a 4d+</	.	.
.	.	.	4a 4d+</	.	.
.	.	.	4r	.	.
!!LO:PB:g=original
=119	=119	=119	=119	=119	=119
*xywh-#11:237,913,3554,857	*xywh-#11:237,913,3554,857	*	*xywh-#11:331,579,3422,554	*	*
2.r	2.r	.	4een 4a+\	.	.
.	.	.	4ee 4a+\	.	.
.	.	.	4r	.	.
=120	=120	=120	=120	=120	=120
2.r	2.r	.	4a 4d+</	.	.
.	.	.	4a 4d+</	.	.
.	.	.	4a 4d+</	.	.
=121	=121	=121	=121	=121	=121
2.r	2.r	.	4een 4a+\	.	.
.	.	.	4ee 4a+\	.	.
.	.	.	4r	.	.
=122||	=122||	=122||	=122||	=122||	=122||
*k[f#c#]	*k[f#c#]	*	*k[f#c#]	*	*
!	!	!	!LO:TX:a:B:t=arco.	!	!
2.r	2.r	.	2d 2G/	.	ff <
.	.	.	[4a [4d/	.	.
=123	=123	=123	=123	=123	=123
2.r	2.r	.	4a] 4d/]	.	.
.	.	.	2ee 2a\	.	[
=124	=124	=124	=124	=124	=124
!	!	!	!LO:MO:mod=!LO&colon;TX&colon;a&colon;B&colon;t=molto vigoroso e con brio	!	!
!	!	!	!LO:TX:b:B:t=molto vigoroso e con brio.	!	!
.	.	.	(>8qd/	.	.
!	!	!LO:DY:b=2:rj	!	!	!
8AA 8DD\	8A< 8D</	f	8ff#L 8av\)	.	.
8r	8r<	.	16r	.	.
.	.	.	(16bbJk 16a\	.	.
2AA 2DD\	2A< 2D</	.	4aa 4a^\)	.	.
.	.	.	8ff#L 8a'\	.	.
.	.	.	8aaJ 8a'\	.	.
!!LO:LB:g=original
=125	=125	=125	=125	=125	=125
*xywh-#11:148,1978,3705,850	*xywh-#11:148,1978,3705,850	*	*xywh-#11:211,1625,3522,516	*	*
2AA 2DD\	2A< 2D</	.	(8.gg#XL 8.aT\	.	.
.	.	.	16eeJk 16a\	.	.
.	.	.	8a 8gn/)	.	.
.	.	.	8r	.	.
[4AA [4DD\	[4A< [4D</	.	8aL 8e'/	.	.
.	.	.	8aJ 8g'/	.	.
=126	=126	=126	=126	=126	=126
4AA] 4DD\]	4A<] 4D</]	.	(4a 4f#t</	.	.
4AA 4DD\	4A< 4D</	.	8aL 8d/)	.	.
.	.	.	(8ff# 8av/	.	.
4AA 4DD\	4A< 4D</	.	8a 8d/	.	.
.	.	.	8aaJ 8a/)	.	.
=127	=127	=127	=127	=127	=127
*tremolo	*	*	*	*	*
32DD\LLL	2.e< 2.c#< 2.A< 2.E</	.	2e 2A/	.	.
32AA\	.	.	.	.	.
32DD\	.	.	.	.	.
32AA\	.	.	.	.	.
32DD\	.	.	.	.	.
32AA\	.	.	.	.	.
32DD\	.	.	.	.	.
32AA\	.	.	.	.	.
32DD\	.	.	.	.	.
32AA\	.	.	.	.	.
32DD\	.	.	.	.	.
32AA\	.	.	.	.	.
32DD\	.	.	.	.	.
32AA\	.	.	.	.	.
32DD\	.	.	.	.	.
32AA\	.	.	.	.	.
32DD\	.	.	(4ee 4a\	.	.
32AA\	.	.	.	.	.
32DD\	.	.	.	.	.
32AA\	.	.	.	.	.
32DD\	.	.	.	.	.
32AA\	.	.	.	.	.
32DD\	.	.	.	.	.
32AA\JJJ	.	.	.	.	.
*Xtremolo	*	*	*	*	*
=128	=128	=128	=128	=128	=128
.	.	.	(>8qd/	.	.
8AA 8DD\	8A< 8D</	.	8ff#L 8a\))	.	.
8r	8r<	.	16r	.	.
.	.	.	(16bbJk 16a\	.	.
2AA 2DD\	2A< 2D<^/	.	4aa 4a^\)	.	.
.	.	.	8ff#L 8a\	.	.
.	.	.	8aaJ 8a\	.	.
=129	=129	=129	=129	=129	=129
2AA 2DD\	2A< 2D<^/	.	(8.gg#XL 8.aT\	.	.
.	.	.	16eeJk 16a\	.	.
.	.	.	8a 8gn/)	.	.
.	.	.	8r	.	.
[4AA [4DD\	[4A< [4D</	.	8aL 8e/	.	.
.	.	.	8aJ 8g/	.	.
!!LO:LB:g=original
=130	=130	=130	=130	=130	=130
*xywh-#11:136,3062,3623,844	*xywh-#11:136,3062,3623,844	*	*xywh-#11:218,2709,3453,497	*	*
4AA] 4DD\]	4A<] 4D</]	.	(4a 4f#t</	.	.
4AA 4DD\	4A< 4D</	.	8aL 8d/)	.	.
.	.	.	(8ff# 8a/	.	.
4AA 4DD\	4e< 4c#< 4B< 4A</	.	8e 8A/	.	.
.	.	.	8eeJ 8a/)	.	.
=131	=131	=131	=131	=131	=131
*tremolo	*	*	*	*	*
32DD\LLL	2.f#< 2.d< 2.A< 2.F#</	.	2.dd 2.d/	.	.
32AA\	.	.	.	.	.
32DD\	.	.	.	.	.
32AA\	.	.	.	.	.
32DD\	.	.	.	.	.
32AA\	.	.	.	.	.
32DD\	.	.	.	.	.
32AA\	.	.	.	.	.
32DD\	.	.	.	.	.
32AA\	.	.	.	.	.
32DD\	.	.	.	.	.
32AA\	.	.	.	.	.
32DD\	.	.	.	.	.
32AA\	.	.	.	.	.
32DD\	.	.	.	.	.
32AA\	.	.	.	.	.
32DD\	.	.	.	.	.
32AA\	.	.	.	.	.
32DD\	.	.	.	.	.
32AA\	.	.	.	.	.
32DD\	.	.	.	.	.
32AA\	.	.	.	.	.
32DD\	.	.	.	.	.
32AA\JJJ	.	.	.	.	.
*Xtremolo	*	*	*	*	*
=132	=132	=132	=132	=132	=132
8AA 8DD\	8e< 8c#< 8A< 8G</	.	8aL 8e 8Av/	.	.
8r	8r<	.	16r	.	.
.	.	.	(16aJk 16f#u/	.	.
[2AA [2DD\	2e< 2c#< 2A< 2G</	.	4a 4g^>/)	.	.
.	.	.	8aL 8e'/	.	.
.	.	.	8aJ 8g'/	.	.
=133	=133	=133	=133	=133	=133
4AA] 4DD\]	2f#< 2d< 2A< 2F#</	.	(4a 4f#t</	.	.
4AA 4DD\	.	.	8aL 8d/	.	.
.	.	.	8ff# 8a/	.	.
4AA 4DD\	4a 4f# 4d 4A/	.	8a 8d/	.	.
.	.	.	16aaJk 16a/)	.	.
.	.	.	16r	.	.
=134	=134	=134	=134	=134	=134
8AA 8DD\	8e< 8c#< 8A< 8G</	.	8aL 8e 8Au/	.	.
8r	8r<	.	16r	.	.
.	.	.	(16aJk 16f#u/	.	.
[2AA [2DD\	2e< 2c#< 2A< 2G</	.	4a 4g/)	.	.
.	.	.	8aL 8e'/	.	.
.	.	.	8aJ 8g'/	.	.
!!LO:LB:g=original
=135	=135	=135	=135	=135	=135
*xywh-#11:79,4102,3585,932	*xywh-#11:79,4102,3585,932	*	*xywh-#11:142,3730,3529,535	*	*
4AA] 4DD\]	2f#< 2d< 2A< 2F#</	.	(4a 4f#t</	.	.
4AA 4DD\	.	.	8aL 8d/	.	.
.	.	.	8ff# 8a/	.	.
4AA 4DD\	4dd 4a 4f# 4d/	.	8a 8d/	.	.
.	.	.	16dddJk 16a/)	.	.
.	.	.	16r	.	.
=136	=136	=136	=136	=136	=136
8AA 8DD\	8e< 8c#< 8A< 8G</	.	8aL 8e 8Au/	.	.
8r	8r<	.	16r	.	.
.	.	.	(16aJk 16f#u/	.	.
[2AA [2DD\	2e< 2c#< 2A< 2G</	.	4a 4g^>/)	.	.
.	.	.	8aL 8e'/	.	.
.	.	.	8aJ 8g'/	.	.
=137	=137	=137	=137	=137	=137
4AA] 4DD\]	2f#< 2d< 2A< 2F#</	.	(4a 4f#t</	.	.
4AA 4DD\	.	.	8aL 8d/	.	.
.	.	.	8ff# 8a/	.	.
4AA 4DD\	4ff# 4dd 4a 4f#/	.	8a 8d/	.	.
.	.	.	16dddJk 16a/)	.	.
.	.	.	16r	.	.
=138	=138	=138	=138	=138	=138
*tremolo	*	*	*	*	*
32AAA/LLL	2a 2e 2c# 2G/	.	(8eL 8A/	.	.
32AA/	.	.	.	.	.
32AAA/	.	.	.	.	.
32AA/	.	.	.	.	.
32AAA/	.	.	16bbJk 16a/)	.	.
32AA/	.	.	.	.	.
32AAA/	.	.	16r	.	.
32AA/	.	.	.	.	.
.	.	.	(16qqaa/LL	.	.
.	.	.	16qqbb/JJ)	.	.
32AAA/	.	.	8aaL 8av\	.	.
32AA/	.	.	.	.	.
32AAA/	.	.	.	.	.
32AA/	.	.	.	.	.
32AAA/	.	.	8gg 8a\	.	.
32AA/	.	.	.	.	.
32AAA/	.	.	.	.	.
32AA/	.	.	.	.	.
32AAA/	4aa 4ee 4cc# 4g\	.	8ff# 8a\	.	.
32AA/	.	.	.	.	.
32AAA/	.	.	.	.	.
32AA/	.	.	.	.	.
32AAA/	.	.	8eeJ 8a\	.	.
32AA/	.	.	.	.	.
32AAA/	.	.	.	.	.
32AA/JJJ	.	.	.	.	.
*Xtremolo	*	*	*	*	*
=139	=139	=139	=139	=139	=139
!	!	!	!LO:SIC:s=8.ddL 8.dv	!	!
4AA 4DD/	4dd 4a 4f# 4d/	.	(8.ddL 8.dv\	.	.
.	.	.	(16dddJk 16dd\	.	.
!	!	!	!LO:SIC:s=8d)	!	!
8DD 8DDD/	8ddd 8aa 8ff# 8dd\	.	8d/) 8d	.	.
!	!	!	!LO:SIC:s=8r	!	!
8r	8r	.	8r)	.	.
!	!LO:TX:b:i:t=Fine.:mod=	!	!	!	!
4r;	4r;	.	4r;	.	.
==	==	==	==	==	==
*-	*-	*-	*-	*-	*-
!!!system-decoration: s1{(s2,s3)}
!!!RDF**kern: > = above
!!!RDF**kern: < = below
!!!RDF**kern: + = l.h. pizz
!!!filter-modern: sic -sq | shed -e "s/TX(.*):t=P:/tx$1:t=P:/LG" | shed -e "s/LO:DY:(a|b|rj)/LO:dy:$1/L" | shed -k -e “s/([^a-gA-Gn#X-])[<>]/$1/g” | modori -m
!!!ENC: Marta Opryszak
!!!END: 2022-05-11
!!!ENC: Marta Lawrence
!!!END: 2022-05-22
!!!ENC-modern: Marta Lawrence
!!!END-modern: 2022-07-20
!!!IIIF: https://polona.pl/iiif/item/MTA4MDQwOTMw/manifest.json
!!!ENC-iiif: Mateusz Mrugas
!!!END-iiif: 2022-08-31
!!!YEC: Copyright 2022 Narodowy Instytut Fryderyka Chopina (https://polishscores.org)
!!!YEM: License CC-BY-4.0 (https://creativecommons.org/licenses/by/4.0)
